Adwaita++-Light/panel/16/keepassx-indicator.svg

<svg height="16" width="16" xmlns="http://www.w3.org/2000/svg">
  <g fill="#444">
    <path d="m11 1a4 4 0 0 0 -4 4 4 4 0 0 0 .5566406 2.0273438l-.6054687.6054687-1.4160157 1.4140625-4.2421874 4.244141c-.39180005.391-.39180005 1.024015 0 1.416015.3916999.391 1.0243156.391 1.4160156 0l.7070312-.707031h1.5839844v-1.583984l.4160156-.416016h1.5839844v-1.486328l1.3652344-1.466797.6054687-.6054688a4 4 0 0 0 2.0292969.5585938 4 4 0 0 0 4-4 4 4 0 0 0 -4-4zm1 2a1 1 0 0 1 1 1 1 1 0 0 1 -1 1 1 1 0 0 1 -1-1 1 1 0 0 1 1-1z"/>
    <path d="m2.00085 3.0986c-.2556 0-.5112.0971-.707.293-.3918.3917-.3918 1.0223 0 1.414l4.2422 4.2424 1.416-1.414-4.2422-4.2424c-.1959-.1959-.4534-.293-.709-.293zm6.365 5.9494-1.365 1.465 4.193 4.193c.392.392 1.023.392 1.414 0 .392-.392.392-1.024 0-1.416z" opacity=".3"/>
  </g>
</svg>

<svg xmlns="http://www.w3.org/2000/svg" width="16" height="16" version="1">
 <defs>
  <style id="current-color-scheme" type="text/css">
   .ColorScheme-Text { color:#444444; } .ColorScheme-Highlight { color:#4285f4; }
  </style>
 </defs>
 <path style="fill:currentColor" class="ColorScheme-Text" d="M 11 1 A 4 4 0 0 0 7 5 A 4 4 0 0 0 7.5566406 7.0273438 L 6.9511719 7.6328125 L 5.5351562 9.046875 L 1.2929688 13.291016 C 0.90116875 13.682016 0.90116875 14.315031 1.2929688 14.707031 C 1.6846687 15.098031 2.3172844 15.098031 2.7089844 14.707031 L 3.4160156 14 L 5 14 L 5 12.416016 L 5.4160156 12 L 7 12 L 7 10.513672 L 8.3652344 9.046875 L 8.9707031 8.4414062 A 4 4 0 0 0 11 9 A 4 4 0 0 0 15 5 A 4 4 0 0 0 11 1 z M 12 3 A 1 1 0 0 1 13 4 A 1 1 0 0 1 12 5 A 1 1 0 0 1 11 4 A 1 1 0 0 1 12 3 z"/>
 <path style="opacity:0.3;fill:currentColor" class="ColorScheme-Text" d="m 2.00085,3.0986 c -0.2556,0 -0.5112,0.0971 -0.707,0.293 -0.3918,0.3917 -0.3918,1.0223 0,1.414 l 4.2422,4.2424 1.416,-1.414 -4.2422,-4.2424 c -0.1959,-0.1959 -0.4534,-0.293 -0.709,-0.293 z m 6.365,5.9494 -1.365,1.465 4.193,4.193 c 0.392,0.392 1.023,0.392 1.414,0 0.392,-0.392 0.392,-1.024 0,-1.416 z"/>
</svg>
